X: 713
T: Ah Surely
R: reel
M: 4/4
K: Gmajor
|:A3c BG G2|BG (3Bcd g2 fg|eA A2 BG (3Bcd|egdc BAGB|
A3c BG G2|BG (3Bcd g3a|bgag (3efg fa|gedc BG G2:|
|:bg g2 agef|g3e dega|bg g2 aged|eaag a2ga|
bg g2 agef|g3e d2 ga|bgag (3efg fa|gedc BG G2:|

